icon_installer/data/icons/scalable/actions/show-money-none-symbolic.svg

<?xml version="1.0" encoding="UTF-8"?>
<svg height="16px" viewBox="0 0 16 16" width="16px" xmlns="http://www.w3.org/2000/svg">
    <g fill="#222222">
        <path d="m 7 1 v 2 h -2 c -0.820312 0 -1.59375 0.339844 -2.148438 0.910156 l 1.410157 1.417969 c 0.1875 -0.207031 0.449219 -0.328125 0.734375 -0.328125 h 0.042968 h 1.960938 v 2 h -1.0625 l 3.0625 3.0625 v -1.0625 h 2 c 0.5625 0 0.996094 0.433594 0.996094 0.996094 s -0.433594 0.996094 -0.996094 0.996094 l -1.0625 0.007812 l 1.867188 1.867188 c 1.253906 -0.359376 2.191406 -1.507813 2.191406 -2.871094 c 0 -1.644532 -1.351563 -2.996094 -2.996094 -2.996094 h -2 v -2 h 4 v -2 h -4 v -2 z m -4.90625 4.277344 c -0.183594 0.742187 -0.082031 1.539062 0.3125 2.21875 c 0.53125 0.925781 1.523438 1.496094 2.59375 1.496094 v 0.011718 h 0.820312 z m 4.90625 4.90625 v 0.816406 h -4 v 2 h 4 v 2 h 2 v -2 h 0.820312 z m 0 0"/>
        <path d="m 1.53125 0.46875 l -1.0625 1.0625 l 14 14 l 1.0625 -1.0625 z m 0 0"/>
    </g>
</svg>

<svg xmlns="http://www.w3.org/2000/svg" width="16" height="16"><g fill="#222"><path d="M7 1v2H5c-.82 0-1.594.34-2.148.91l1.41 1.418A.985.985 0 0 1 4.996 5H7v2H5.937L9 10.063V9h2c.563 0 .996.434.996.996s-.434.996-.996.996L9.937 11l1.868 1.867c1.254-.36 2.191-1.508 2.191-2.87A3.01 3.01 0 0 0 11 7H9V5h4V3H9V1zM2.094 5.277A2.99 2.99 0 0 0 5 8.992v.012h.82zM7 10.184V11H3v2h4v2h2v-2h.82zm0 0"/><path d="M1.531.469.47 1.53l14 14 1.062-1.062zm0 0"/></g></svg>
